X:1
T:Our Heavnly Father, All Unseen
T:Hugo Distler
T:Martin Luther (1483 - 1546)
T:49.  Our Heavenly Father, All Unseen Vaterunser Prayers
T:Bärenreiter
T:Bärenreiter
T:Bärenreiter
T:Bärenreiter
T:Bärenreiter
T:Bärenreiter
T:Bärenreiter
T:Bärenreiter
T:Bärenreiter
T:Bärenreiter
C:Hugo Distler
Z:Martin Luther
Z:(1483 - 1546)
Z:Bärenreiter
%%score [ 1 ( 2 3 ) 4 ]
L:1/8
Q:1/4=72
M:3/2
K:Bb
V:1 treble nm="Soprano"
V:2 treble nm="Alto 1"
V:3 treble 
V:4 treble nm="Alto 2"
V:1
"^*)" G4 | G2 E2 F2 G2 E2 D2 |[M:2/4] !breath!C2 G2 |[M:3/2] G2 F2 B2 G2 E2 F2 | %4
w: 1.  Our|heav'n- ly Fa- ther, all un-|seen, who|bids us all a- like to|
w: 3.  Your|King- dom come, both in this|hour and|from this day for- e- ver-|
w: 5.  Give|us this day our dai- ly|bread, that|all our bod- ies' needs be|
w: 7.  In-|to temp- ta- tion lead us|not, should|e- vil spir- its tempt us|
w: 9.  A-|men, which means, May it be|so! Lord,|strength- en our faith more and|
[M:3/4] !breath!G2 G4 |[M:3/2] B2 c2 e2 d2 c2 B2 |[M:3/4] !breath!c4 c2 | %7
w: be as|broth- ers and to call on|Him, and|
w: more. And|may Your Spir- it dwell with|us and|
w: fed; pro-|tect us from un- rest and|strife, from|
w: aught, and|help us to re- sist and|stand a-|
w: more, so|that we may not ev- er|doubt what|
[M:3/2] d2 c2 B2 A2 G2 F2 |[M:2/2] !breath!G4 c4 |[M:3/2] B2 A2 B2 G2 G2 F2 | !breath!E4 G4 G4 | %11
w: seeks our prayers be raised to|Him: grant|that not from our mouths a-|lone, help, help|
w: bless us with His man- y|gifts; de-|stroy the pow'r of Sa- tan's|wrath; pro- tect,|
w: fam- ine, plague, and e- vil|times, that|we may peace- ful times en-|joy, care, care,|
w: gainst all ill on eith- er|hand, with|cer- tain faith that strength- ens|most, com- fort,|
w: we to You have prayed a-|bout up-|on Your Word and in Your|Name: A- men,|
 _A2 G2 E2 F2 E2 D2 | C8 || G4 | G2 E2 F2 G2 E2 D2 |[M:2/2] !breath!C4 G4 | %16
w: that from hearts our prayers in-|tone.|2.  All|hal- lowed be Your Name, O|Lord. May|
w: save your church from him at|last.|4.  May|Your will here on earth be|done, as|
w: care and greed go un- em-|ployed.|6.  For-|give us all our debts, O|Lord, and|
w: com- fort of the Ho- ly|Ghost.|8.  De-|liv- er us from e- vil,|Lord, for|
w: say we now, A- men, a-|men.||||
[M:3/2] G2 F2 B2 G2 E2 F2 |[M:2/2] !breath!G4 G4 |[M:3/2] B2 c2 e2 d2 c2 B2 | %19
w: we be true to your true|word that|we may live in ho- li-|
w: it is in Your heav'n- ly|home;. For-|bear- ance grant, when suff'- ring|
w: may they trou- ble us no|more, as|we for- give our debt- ors|
w: these are e- vil times and|hard., And|save us from e- ter- nal|
w: |||
[M:2/2] !breath!c4 c4 |[M:3/2] d2 c2 B2 A2 G2 F2 |[M:2/2] !breath!G4 c4 | %22
w: ness and|bear Your Name in wor- thi-|ness. Pro-|
w: comes, o-|be- di- ence in weal and|woe; and|
w: all their|debts and fail- ings, large and|small, and|
w: death, and|com- fort us at our last|breath. Be-|
w: |||
[M:3/2] B2 A2 B2 G2 G2 F2 |[M:2/2] !breath!E4 G4 |[M:3/2] _A3 G EF E4 D2 | C8 |] %26
w: tect us from false teach- ers|here, who|may mis- lead and charm the|ear.|
w: those who work a- gainst Your|will re-|sist them, Lord, yet guide them|still.|
w: worth- y serv- ants let us|be to|serve in love and u- ni-|ty.|
w: stow on us a bles- sed|end; take,|take our souls in- to Your|hands.|
w: ||||
V:2
 E2 E2 | D2 C4 D2 C2 C2 |[M:2/4] !breath!C2 E2 |[M:3/2] D2 E2 F2 E2 D2 C2 |[M:3/4] !breath!D2 E4 | %5
w: 1.  Our heav'n-|ly Fa- ther, all un-|seen, who|bids us all a- like to|be as|
w: 3.  Your King-|dom come, both in this|hour and|from this day for- e- ver-|more. And|
w: 5.  Give us|this day our dai- ly|bread, that|all our bod- ies' needs be|fed; pro-|
w: 7.  In- to|temp- ta- tion lead us|not, should|e- vil spir- its tempt us|aught, and|
w: 9.  A- men,|which means, May it be|so! Lord,|strength- en our faith more and|more, so|
[M:3/2] F2 G2 C2 =D2 E2 F2 |[M:3/4] !breath!G4 =A2 |[M:3/2] B2 A2 G2 F2 E2 E2 | %8
w: broth- ers and to call on|Him, and|seeks our prayers be raised to|
w: may Your Spir- it dwell with|us and|bless us with His man- y|
w: tect us from un- rest and|strife, from|fam- ine, plague, and e- vil|
w: help us to re- sist and|stand a-|gainst all ill on eith- er|
w: that we may not ev- er|doubt what|we to You have prayed a-|
[M:2/2] !breath!D4 =E4 |[M:3/2] D2 =E2 (FE) D2 C3 B, | !breath!C4 D4 D4 | _E2 D2 C2 D2 E2 F2 | %12
w: Him: grant|that not from _ our mouths a-|lone, help, help|that from hearts our prayers in-|
w: gifts; de-|stroy the pow'r _ of Sa- tan's|wrath; pro- tect,|save your church from him at|
w: times, that|we may peace- * ful times en-|joy, care, care,|care and greed go un- em-|
w: hand, with|cer- tain faith _ that strength- ens|most, com- fort,|com- fort of the Ho- ly|
w: bout up-|on Your Word _ and in Your|Name: A- men,|say we now, A- men, a-|
 G8 || z4 | z2 C2 C2 B,2 CD B,2- |[M:2/2] B,2 _A,2 !breath!G,4 |[M:3/2] C4 C2 B,2 ED C2- | %17
w: tone.||2.  All hal- lowed be Your Name,|_ O Lord.|May we be true to your|
w: last.||4.  May Your will here on earth|_ be done,|as it is in Your heav'n-|
w: ployed.||6.  For- give us all our debts,|_ O Lord,|and may they trou- ble us|
w: Ghost.||8.  De- liv- er us from e-|* vil, Lord,|for these are e- vil times|
w: men.|||||
[M:2/2] CB, !breath!C2 D E2 F |[M:3/2] G2 F2 (E4- ED/C/) D2 |[M:2/2] !breath!E2 E2 F2 E2 | %20
w: _ true word that we may|live in ho- * * * li-|ness and bear Your|
w: * ly home;. For- bear- ance|grant, when suff'- * * * ring|comes, o- be- di-|
w: _ no more, as we for-|give our debt- * * * ors|all their debts and|
w: _ and hard., And save us|from e- ter- * * * nal|death, and com- fort|
w: |||
[M:3/2] (D4 !breath!D)EFE DC D2- |[M:2/2] D2 D2 !breath!C4 |[M:3/2] G2 F4 E2 FE D2- | %23
w: Name, _ and bear Your Name in wor-|* thi- ness.|Pro- tect us from false teach-|
w: ence, _ o- be- di- ence in weal|_ and woe;|and those who work a- gainst|
w: fail- ings, their debts and fail- ings, large|_ and small,|and worth- y serv- ants let|
w: us, _ and com- fort us at our|_ last breath.|Be- stow on us a bles-|
w: |||
[M:2/2] D2 C2 !breath!B,4 |[M:3/2] C2 E3 DCB, _A,2 B,2 | C8 |] %26
w: * ers here,|who may mis- lead and charm the|ear.|
w: _ Your will|re- sist them, Lord, yet guide them|still.|
w: _ us be|to serve in love and u- ni-|ty.|
w: * sed end;|take, take our souls in- to Your|hands.|
w: |||
V:3
 x4 | x12 |[M:2/4] x4 |[M:3/2] x12 |[M:3/4] x6 |[M:3/2] x12 |[M:3/4] x6 |[M:3/2] x12 |[M:2/2] x8 | %9
[M:3/2] x12 | x12 | x4 C2 B,2 C2 D2 | =E8 || x4 | x12 |[M:2/2] x8 |[M:3/2] x12 |[M:2/2] x8 | %18
[M:3/2] x12 |[M:2/2] x8 |[M:3/2] x12 |[M:2/2] x8 |[M:3/2] x12 |[M:2/2] x8 |[M:3/2] x12 | x8 |] %26
V:4
 C2 C2 | B,2 _A,4 G,2 C2 B,2 |[M:2/4] !breath!C2 C2 |[M:3/2] B,2 =A,2 G,2 C2 B,2 A,2 | %4
w: 1.  Our heav'n-|ly Fa- ther, all un-|seen, who|bids us all a- like to|
w: 3.  Your King-|dom come, both in this|hour and|from this day for- e- ver-|
w: 5.  Give us|this day our dai- ly|bread, that|all our bod- ies' needs be|
w: 7.  In- to|temp- ta- tion lead us|not, should|e- vil spir- its tempt us|
w: 9.  A- men,|which means, May it be|so! Lord,|strength- en our faith more and|
[M:3/4] !breath!G,2 E4 |[M:3/2] _D2 C2 _A,2 B,2 C2 D2 |[M:3/4] !breath!C4 F2 | %7
w: be as|broth- ers and to call on|Him, and|
w: more. And|may Your Spir- it dwell with|us and|
w: fed; pro-|tect us from un- rest and|strife, from|
w: aught, and|help us to re- sist and|stand a-|
w: more, so|that we may not ev- er|doubt what|
[M:3/2] F2 E2 =D2 B,2 C2 C2 |[M:2/2] !breath!G,4 =A,4 |[M:3/2] B,2 C2 (DC) B,2 E2 D2 | %10
w: seeks our prayers be raised to|Him: grant|that not from _ our mouths a-|
w: bless us with His man- y|gifts; de-|stroy the pow'r _ of Sa- tan's|
w: fam- ine, plague, and e- vil|times, that|we may peace- * ful times en-|
w: gainst all ill on eith- er|hand, with|cer- tain faith _ that strength- ens|
w: we to You have prayed a-|bout up-|on Your Word _ and in Your|
 !breath!C4 B,4 B,4 | _A,2 B,2 C2 G,2 A,2 B,2 | C8 || z4 | z12 |[M:2/2] z8 |[M:3/2] z12 | %17
w: lone, help, help|that from hearts our prayers in-|tone.|||||
w: wrath; pro- tect,|save your church from him at|last.|||||
w: joy, care, care,|care and greed go un- em-|ployed.|||||
w: most, com- fort,|com- fort of the Ho- ly|Ghost.|||||
w: Name: A- men,|say we now, A- men, a-|men.|||||
[M:2/2] z8 |[M:3/2] z12 |[M:2/2] z8 |[M:3/2] z12 |[M:2/2] z8 |[M:3/2] z12 |[M:2/2] z8 | %24
w: |||||||
w: |||||||
w: |||||||
w: |||||||
w: |||||||
[M:3/2] z12 | z8 |] %26
w: ||
w: ||
w: ||
w: ||
w: ||

